!!!!SEGMENT: pl-gd--ee-1638--003-006_marenzio-luca--madrigali-a-quatro-voci-non-al-suo-amante-piu.krn
!!!cenid: 15xx:980
!!!COM: Marenzio, Luca
!!!COM-rismID: pe30003955
!!!CDT: ~1553-1599/08/22
!!!CNT: Italian
!!!GTL: Madrigali a quatro voci
!!!OTL: Non al suo amante piu
!!!OMV: 006
!!!PDT: 1587
!!!AGN:
!!!SMS-siglum: PL-GD
!!!SMS-shelfmark: Ee 1638
!!!SMS-shelfwork: 003-006 G
!!!SMS-variant:
!!!SMS-altvar:
!!!NIFC-rismSourceID: 990039322
!!!NIFC-islandoraID: pl-gd:57883
!!!URL-pdf-islandora: https://repozytorium.nifc.pl/islandora/object/pl-gd%3A57883/datastream/PDF/view
!!!URL-scan: https://polish.musicsources.pl/pl/lokalizacje/galeria/klocki-introligatorskie/655 @EN{Scan on Polish Music Sources Website} @PL{Skany w portalu Dziedzictwo Muzyki Polskiej w otwartym dostępie}
!!!ONB-nifc: UWAGA: zbiór na stronach: Canto: s. 637-653, Alto: s. do 486-501, Tenore: s. do 334-349, Bassus: s. do 182-197. Uwaga: utwory podzielone wg tytułów w spisach treści dostępnych na końcu każdej księgi głosowej.
!!!AIN: 1 alto 1 bass 1 soprn 1 tenor
!!!key:
**kern	**text	**kern	**text	**kern	**text	**kern	**text
*part4	*part4	*part3	*part3	*part2	*part2	*part1	*part1
*staff4	*staff4	*staff3	*staff3	*staff2	*staff2	*staff1	*staff1
*I"BASSO	*	*I"TENORE	*	*I"ALTO	*	*I"CANTO	*
*I'B	*	*I'T	*	*I'A	*	*I'S	*
*ICvox	*	*ICvox	*	*ICvox	*	*ICvox	*
*Ibass	*	*Itenor	*	*Ialto	*	*Isoprn	*
*clefC4	*	*clefC3	*	*clefC2	*	*clefG2	*
*k[]	*	*k[]	*	*k[]	*	*k[]	*
*C:	*	*C:	*	*C:	*	*C:	*
*M2/1	*	*M2/1	*	*M2/1	*	*M2/1	*
*met(C|)	*	*met(C|)	*	*met(C|)	*	*met(C)	*
=1-	=1-	=1-	=1-	=1-	=1-	=1-	=1-
*xywh-pl-gd--ee1638-8o--0185:1254,656,3349,736	*	*xywh-pl-gd--ee1638-8o--0337:1215,570,3266,783	*	*xywh-pl-gd--ee1638-8o--0489:1182,477,3331,892	*	*xywh-pl-gd--ee1638-8o--0641:1170,575,3413,760	*
1c	NOn	1e	NOn	1g	NOn	1cc	NOn
2A/	al	2e\	al	2a\	al	2cc\	al
2G/	ſuo a-	2g\	ſuo a-	2b\	ſuo a	2dd\	ſuo a-
=2-	=2-	=2-	=2-	=2-	=2-	=2-	=2-
1c	-man-	1g	-ma(n)-	1cc	man	1ee	-man-
2G/	-te	2g\	-te	1b	te	1dd	-te
4G/	piu	4g\	piu	.	.	.	.
4G/	Di-	4g\	Di-	.	.	.	.
=3-	=3-	=3-	=3-	=3-	=3-	=3-	=3-
4A/	-a-	4f\	-a-	2r	.	2r	.
4c\	-na-	4e\	-na	.	.	.	.
2B\	-piac-	2d\	piac-	4g\	piu	4dd\	piu
.	.	.	.	4g\	Di-	4dd\	Di-
2c\	-que	2g\	-que	4e/	-a-	4cc\	-a-
.	.	.	.	4g\	-na	4b/	-na
2r	.	1d\	Qua(n)-	2f#X\	piac	2a/	piac-
=4-	=4-	=4-	=4-	=4-	=4-	=4-	=4-
1G	Qua(n)-	.	.	2g\	que	4.b/	-que
.	.	.	.	.	.	8cc\	.
.	.	1B	-do	2r	.	2dd\	.
1E	-do	.	.	1b	Quan-	1gg	Qua(n)-
.	.	1g\	Quan-	.	.	.	.
=5-	=5-	=5-	=5-	=5-	=5-	=5-	=5-
1c	Qua(n)-	.	.	2cc\	-do	0ee	-do
!	!	!	!	!LO:SIC:v:t=custos a	!	!	!
.	.	4e\	-do	2g\	per	.	.
.	.	4e\	per	.	.	.	.
!	!	!	!	!LO:LB:g=original	!	!	!
*	*	*	*	*xywh-pl-gd--ee1638-8o--0489:1192,1214,3394,653	*	*	*
1A	-do	4c/	tal	4a\	tal	.	.
.	.	4d\	uen-	4b\	uen-	.	.
.	.	4e\	-tu-	4cc\	-tu-	.	.
!	!	!LO:SIC:v:t=custos g	!	!	!	!	!
.	.	4f\	-ra	4a\	-ra	.	.
!	!	!LO:LB:g=original	!	!	!	!	!
=6-	=6-	=6-	=6-	=6-	=6-	=6-	=6-
*	*	*xywh-pl-gd--ee1638-8o--0337:1011,1211,3541,671	*	*	*	*	*
2r	.	4g\	tut-	4b\	tut-	2r	.
.	.	4f\	ta i-	4a\	ta i-	.	.
!LO:SIC:v:t=custos A	!	!	!	!	!	!	!
2G/	per	4e\	-gnu-	4g\	-gnu-	2b/	per
.	.	8e\	-da	8g\	-da	.	.
.	.	8d\	La	8f#\	La	.	.
!LO:LB:g=original	!	!	!	!	!	!	!
*xywh-pl-gd--ee1638-8o--0185:1185,1312,3441,598	*	*	*	*	*	*	*
4A/	tal	1c	vi-	1e	vi-	4cc\	tal
4B\	uen	.	.	.	.	4dd\	uen-
4c\	tu	.	.	.	.	4ee\	-tu-
!	!	!	!	!	!	!LO:SIC:v:t=custos dd	!
4A/	ra	.	.	.	.	4cc\	-ra
!	!	!	!	!	!	!LO:LB:g=original	!
=7-	=7-	=7-	=7-	=7-	=7-	=7-	=7-
*	*	*	*	*	*	*xywh-pl-gd--ee1638-8o--0641:1242,1213,3300,658	*
4B\	tut	2G/	-de	2g\	-de	4dd\	tut-
4A/	ta i-	.	.	.	.	4cc\	ta i-
4G/	-gnu-	2B/	per	2d/	per	4b/	-gnu-
8G/	-da	.	.	.	.	8b/	-da
8F/	La	.	.	.	.	8a/	La
1E	vi-	4B/	tal	4e/	tal	2g/	vi-
.	.	4A/	ven-	4f#\	ven-	.	.
.	.	4B/	-tu-	4g\	-tu-	2e/	-de
.	.	4c/	-ra	4e/	-ra	.	.
=8-	=8-	=8-	=8-	=8-	=8-	=8-	=8-
2D/	de in	4d\	tut-	4f#\	tut-	2r	.
.	.	4c/	ta i-	4e/	ta i-	.	.
1G	me-	4B/	-gnu-	4d/	-gnu-	2b/	in
.	.	8B/	-da	8d/	-da	.	.
.	.	8A/	La	8c/	La	.	.
.	.	2G/	vi-	2B/	vi-	2dd\	me-
2E/	-zo	2B/	de in	2g\	de in	1ee\	-zo
=9-	=9-	=9-	=9-	=9-	=9-	=9-	=9-
1.A	de-	2.c#X/	me-	2.e/	me-	.	.
.	.	.	.	.	.	1a	de
!	!	!	!	!LO:SIC:v:t=custos e	!	!	!
.	.	4c#/	-zo	4e/	-zo	.	.
!	!	!	!	!LO:LB:g=original	!	!	!
*	*	*	*	*xywh-pl-gd--ee1638-8o--0489:1005,1712,3539,716	*	*	*
.	.	2c#/	de	2e/	de	.	.
!	!	!LO:SIC:v:t=custos B	!	!	!	!	!
2D/	-le	2d\	le	2f#\	le	2a/	le
!	!	!LO:LB:g=original	!	!	!	!	!
=10-	=10-	=10-	=10-	=10-	=10-	=10-	=10-
*	*	*xywh-pl-gd--ee1638-8o--0337:1113,1740,3409,702	*	*	*	*	*
2E/	ge-	2B/	ge-	2e/	ge-	2g#X/	ge-
2E/	-li-	2B/	-li-	2e/	-li-	2g#/	-li-
*lig	*	*	*	*	*	*	*
1A	de ac-	2.c#/	de ac-	2.e/	de ac-	8a/	de ac-
.	.	.	.	.	.	8b/	.
.	.	.	.	.	.	8cc\	.
.	.	.	.	.	.	8dd\	.
.	.	.	.	.	.	4ee\	.
.	.	4d\	.	4f#\	.	8dd\	.
.	.	.	.	.	.	8cc\	.
=11-	=11-	=11-	=11-	=11-	=11-	=11-	=11-
1G	.	2e\	.	1g	.	4b/	.
.	.	.	.	.	.	2cc\	.
.	.	2d\	-que	.	.	.	.
!	!	!	!	!	!	!LO:SIC:v:t=custos cc	!
.	.	.	.	.	.	4b/	.
*Xlig	*	*	*	*	*	*	*
!	!	!	!	!	!	!LO:LB:g=original	!
*	*	*	*	*	*	*xywh-pl-gd--ee1638-8o--0641:1139,1706,3475,688	*
2C/	-que	4r	.	1e	-que	2cc\	-que
.	.	4g\	Ch'a	.	.	.	.
4r	.	4g\	me	.	.	4r	.
4c\	Ch'a	4g\	la	.	.	4ee\	Ch'a
=12-	=12-	=12-	=12-	=12-	=12-	=12-	=12-
4c\	me	4e\	Pa-	1r	.	4ee\	me
4A/	la	4a\	-ſto-	.	.	4cc\	la
4B\	Pa-	2g\	-rel-	.	.	4dd\	Pa-
!LO:SIC:v:t=custos d	!	!	!	!	!	!	!
4c\	-ſto-	.	.	.	.	4ee\	-ſto-
!LO:LB:g=original	!	!	!	!	!	!	!
*xywh-pl-gd--ee1638-8o--0185:1220,1807,3430,656	*	*	*	*	*	*	*
1d	-rel-	4f\	-la	4r	.	1ff	-rel-
.	.	4f\	Ch'a	4a\	Ch'a	.	.
.	.	4f\	me	4a\	me	.	.
.	.	4d\	la	4f#\	la	.	.
=13-	=13-	=13-	=13-	=13-	=13-	=13-	=13-
2c\	la al	4e\	pa-	4g\	Pa-	2ee\	la al-
.	.	4f\	-ſto-	4a\	-ſto-	.	.
1B-X	pe-	2g\	-rel-	2b-X\	-rel-	1dd	-peſ-
.	.	2d\	la al-	2f#\	la al-	.	.
2A/	ſtra (et)	1f\	-peſ-	1a\	-peſ-	2cc\	tra e
=14-	=14-	=14-	=14-	=14-	=14-	=14-	=14-
0.c	cru-	.	.	.	.	0.cc	cru-
.	.	2e\	tra e	1g	tra e	.	.
!	!	!LO:SIC:v:t=custos g	!	!	!	!	!
.	.	1a	cru-	.	.	.	.
.	.	.	.	1f#\	cru-	.	.
=15-	=15-	=15-	=15-	=15-	=15-	=15-	=15-
*	*	*xywh-pl-gd--ee1638-8o--0337:1215,2310,3368,661	*	*	*	*	*
.	.	1g	-da	.	.	.	.
.	.	.	.	2e/	-da	.	.
2F/	-da	4r	.	4r	.	1cc	-da
.	.	4f\	Po-	4a\	Po-	.	.
2r	.	4e\	-ſt'a	4g\	-ſt'à	.	.
.	.	4f\	ba-	4a\	ba-	.	.
=16-	=16-	=16-	=16-	=16-	=16-	=16-	=16-
!	!	!	!	!LO:SIC:v:t=custos b	!	!	!
4r	.	2c/	-gnar	1g	-gnar	4r	.
4c\	Po-	.	.	.	.	4ee\	Po-
4B-\	-ſt'a	2r	.	.	.	4dd\	-ſt'a
4c\	ba-	.	.	.	.	4ee\	ba-
!	!	!	!	!LO:LB:g=original	!	!	!
*	*	*	*	*xywh-pl-gd--ee1638-8o--0489:1057,2304,3466,674	*	*	*
2G/	-gnar	4r	.	4r	.	1dd	-gnar
.	.	4g\	Po-	4b-\	Po-	.	.
2r	.	4f#X\	-ſt'a	4a\	-ſt'a	.	.
.	.	4g\	ba-	4b-\	ba-	.	.
=17-	=17-	=17-	=17-	=17-	=17-	=17-	=17-
0r	.	4d\	-gnar	4a\	-gnar	4r	.
.	.	4g\	un	4b-\	un	4dd\	un
.	.	4.g\	leg	4.b-\	leg-	4.dd\	leg
.	.	8e\	giadr-	8cc\	-giadr-	8ee\	giadr-
.	.	4f#\	-et-	4a\	-et-	4cc\	-et-
.	.	4a\	-to	4cc\	-to	4cc\	-to
!	!	!	!	!	!	!LO:SIC:v:t=custos ee	!
.	.	2g\	ve	2b-\	ve-	2dd\	ve
!	!	!	!	!	!	!LO:LB:g=original	!
=18-	=18-	=18-	=18-	=18-	=18-	=18-	=18-
*	*	*	*	*	*	*xywh-pl-gd--ee1638-8o--0641:1252,2303,3280,688	*
4r	.	4c/	lo	4cc\	-lo	4.ee\	lo
4c\	Po	4e\	Po	4g\	Po-	.	.
.	.	.	.	.	.	8ff\	.
4B-\	ſt'a	4d\	ſt'a	4.g\	-ſt'a	2gg\	.
4c\	ba	4e\	ba	.	.	.	.
.	.	.	.	8a\	ba-	.	.
4G/	gnar	4d\	gnar	4b-\	-gnar	4r	.
4d\	un	4f#X\	un	4a\	un	4dd\	un
4.d\	leg	4.f#\	leg	4.a\	leg-	4.dd\	leg
!	!	!LO:SIC:v:t=custos e	!	!	!	!	!
8B-\	gia	8g\	gia	8b-\	-gia-	8dd\	gia
!	!	!LO:LB:g=original	!	!	!	!	!
=19-	=19-	=19-	=19-	=19-	=19-	=19-	=19-
*	*	*xywh-pl-gd--ee1638-8o--0337:1093,2839,3409,641	*	*	*	*	*
4c\	dret	4e\	dret	4g\	-dret-	4ee\	dret
4e\	to	4g\	to	4g\	-to	4b/	to
!LO:SIC:v:t=custos G	!	!	!	!	!	!	!
2d\	ve	2f#X\	ve	2a\	ve-	2dd\	ve
!LO:LB:g=original	!	!	!	!LO:SIC:v:t=custos g	!	!	!
*xywh-pl-gd--ee1638-8o--0185:1243,2371,3372,621	*	*	*	*	*	*	*
1G	lo	2g\	lo	1b-	-lo	1dd	lo
.	.	2d\	Ch'a	.	.	.	.
!	!	!	!	!LO:LB:g=original	!	!	!
=20-	=20-	=20-	=20-	=20-	=20-	=20-	=20-
*	*	*	*	*xywh-pl-gd--ee1638-8o--0489:1223,2864,3290,602	*	*	*
1G	Ch'a	4e\	Lau-	2r	.	1b	Ch'à
.	.	4d\	.	.	.	.	.
.	.	2.d\	.	2g\	Ch'à	.	.
1A	Lau	.	.	1e	Lau-	1a	Lau
.	.	8c#yX/	.	.	.	.	.
.	.	8B/	.	.	.	.	.
.	.	2c#X/	.	.	.	.	.
=21-	=21-	=21-	=21-	=21-	=21-	=21-	=21-
1D	ra	1d	-ra	2f#\	-ra'il	2a/	ra il-
.	.	.	.	4f#\	ua-	4a/	-ua-
.	.	.	.	4g\	-go	4b/	go e
1r	.	1r	.	4a\	bio(n)-	4cc\	bio(n)-
.	.	.	.	8a\	-do	8cc\	-do
.	.	.	.	8b-\	ca-	8dd\	ca-
.	.	.	.	2cc\	-pel	2ee\	-pel
=22-	=22-	=22-	=22-	=22-	=22-	=22-	=22-
1d	Ch'à	0r	.	4b-\	chiu-	2.dd\	chiu-
.	.	.	.	4a\	.	.	.
.	.	.	.	2.a\	.	.	.
.	.	.	.	.	.	4cc\	.
1e	Lau-	.	.	.	.	1b	.
.	.	.	.	8g\	.	.	.
.	.	.	.	8f#X\	.	.	.
.	.	.	.	2g#X\	.	.	.
=23-	=23-	=23-	=23-	=23-	=23-	=23-	=23-
2A/	ra il	4r	.	1a	-da	2cc\	-da
.	.	4e\	il	.	.	.	.
!	!	!	!	!	!	!LO:SIC:v:t=custos cc	!
4A/	ua-	4c#/	ua-	.	.	2r	.
4B-\	go e	4d\	go e	.	.	.	.
!	!	!	!	!	!	!LO:LB:g=original	!
*	*	*	*	*	*	*xywh-pl-gd--ee1638-8o--0641:1139,2786,3362,668	*
4c\	bion-	4e\	bio(n)-	1r	.	4r	.
8c\	-do	8e\	-do	.	.	4cc\	e
8d\	ca-	8f#\	ca-	.	.	.	.
2e\	-pel	2g\	-pel	.	.	4b/	bion-
.	.	.	.	.	.	8b/	-do
.	.	.	.	.	.	8cc\	ca-
=24-	=24-	=24-	=24-	=24-	=24-	=24-	=24-
2.d\	chiu-	2.f#\	chiu-	1r	.	4dd\	-pel
.	.	.	.	.	.	8d/	chiu-
.	.	.	.	.	.	8e/	.
.	.	.	.	.	.	8f/	.
.	.	.	.	.	.	8g#/	.
!	!	!LO:SIC:v:t=custos d	!	!	!	!	!
4c\	.	4e\	.	.	.	2a/	.
!	!	!LO:LB:g=original	!	!	!	!	!
*	*	*xywh-pl-gd--ee1638-8o--0337:1164,3389,3348,620	*	*	*	*	*
1B-	.	1.d	.	2r	.	.	.
.	.	.	.	.	.	8g#/	.
.	.	.	.	.	.	8f#X/	.
.	.	.	.	2d/	Tal	2g#X/	.
=25-	=25-	=25-	=25-	=25-	=25-	=25-	=25-
1A	-da	.	.	2f#\	che	1a	-da
.	.	2c#X/	-da	2e/	mi	.	.
2d\	Tal	4r	.	2f#\	fec'-	4r	.
.	.	4d\	Tal	.	.	4a/	Tal
!	!	!	!	!LO:SIC:v:t=custos g#	!	!	!
2c\	che	2e\	che	2g#\	-hor	2cc\	che
!	!	!	!	!LO:LB:g=original	!	!	!
=26-	=26-	=26-	=26-	=26-	=26-	=26-	=26-
*	*	*	*	*xywh-pl-gd--ee1638-8o--0489:1088,3321,3487,685	*	*	*
2G/	mi	4d\	mi	1r	.	2b/	mi
.	.	4.e\	fec'	.	.	.	.
!LO:SIC:v:t=custos G	!	!	!	!	!	!	!
2A/	fec'	.	.	.	.	2cc\	fec'-
.	.	8d\	.	.	.	.	.
.	.	2c#/	.	.	.	.	.
!LO:LB:g=original	!	!	!	!	!	!	!
*xywh-pl-gd--ee1638-8o--0185:1162,2878,3441,644	*	*	*	*	*	*	*
2G/	hor	.	.	4r	.	2dd\	-hor
*	*	*	*	*	*ij	*	*
.	.	4B/	hor	4g#\	Tal	.	.
4c\	quan-	2r	.	2e/	che	4g#/	qua(n)d'-
4c\	-d'e-	.	.	.	.	4g#/	-e-
=27-	=27-	=27-	=27-	=27-	=27-	=27-	=27-
8F/	-gli	1r	.	2f#\	mi	8a/	-gli-
8G/	ar-	.	.	.	.	8b/	-ar-
8A/	.	.	.	.	.	8cc\	.
!	!	!	!	!	!	!LO:SIC:v:t=custos ee	!
8B-\	.	.	.	.	.	8dd\	.
!	!	!	!	!	!	!LO:LB:g=original	!
*	*	*	*	*	*	*xywh-pl-gd--ee1638-8o--0641:1211,3331,3331,688	*
4c\	.	.	.	2e/	fec'-	4ee\	.
4C/	-d'il	.	.	.	.	4cc\	de il
8G/	cie-	4r	.	1d	-hor	2b/	cie-
8A/	.	.	.	.	.	.	.
8B-\	.	4d\	Tal	.	.	.	.
8c\	.	.	.	.	.	.	.
2d\	.	2f#\	che	.	.	2a/	-lo
*	*	*	*	*	*Xij	*	*
=28-	=28-	=28-	=28-	=28-	=28-	=28-	=28-
1A	-lo	2e\	mi	0r	.	4r	.
.	.	.	.	.	.	2a/	Tal
.	.	2f#\	fec'-	.	.	.	.
.	.	.	.	.	.	2cc\	che
4r	.	1g	-hor	.	.	.	.
4G/	Tal	.	.	.	.	2b/	mi
2E/	che	.	.	.	.	.	.
.	.	.	.	.	.	2cc\	fec'-
=29-	=29-	=29-	=29-	=29-	=29-	=29-	=29-
2F/	mi	4a\	qua(n)-	4r	.	.	.
.	.	4a\	-d'e-	4A/	Tal	4dd\	-hor
1E	fec'-	8g\	-gli-	4c/	che	4r	.
.	.	8f#\	-ar	.	.	.	.
*	*	*	*	*	*	*	*ij
.	.	8e\	.	2B/	mi	4gg\	Tal
.	.	8f#\	.	.	.	.	.
.	.	4g\	.	.	.	2ee\	che
.	.	4G/	de il	4c/	fec'	.	.
!LO:SIC:v:t=custos A	!	!	!	!	!	!	!
2D/	-hor	4.A/	cie-	2d/	hor	2ff\	mi
!	!	!LO:SIC:v:t=custos c#	!	!	!	!	!
.	.	8B/	.	.	.	.	.
!LO:LB:g=original	!	!LO:LB:g=original	!	!	!	!	!
=30-	=30-	=30-	=30-	=30-	=30-	=30-	=30-
*xywh-pl-gd--ee1638-8o--0185:1243,3430,3349,621	*	*xywh-pl-gd--ee1638-8o--0337:1174,3938,3368,630	*	*	*	*	*
4A/	qua(n)-	2c#X/	.	4e/	qua(n)-	2ee\	fec'-
4A/	-d'e-	.	.	4e/	-d'e-	.	.
8d\	-gli-	2d\	-lo	8f#\	-gli-	2dd\	-hor
8c\	-ar	.	.	8e/	-ar	.	.
8B-\	.	.	.	8d/	.	.	.
8A\	.	.	.	8c/	.	.	.
*	*	*	*	*	*	*	*Xij
4G/	.	4r	.	4B/	.	4dd\	qua(n)-
4G/	d'il	4B/	qua(n)-	2g#\	de il	4dd\	-d'e-
8c\	cie-	4e\	-d'e-	.	.	8ee\	-gli
8B-\	.	.	.	.	.	8dd\	ar
8A\	.	4.f#\	gli ar	4.a\	cie-	8cc\	.
8G/	.	.	.	.	.	8b\	.
=31-	=31-	=31-	=31-	=31-	=31-	=31-	=31-
2.F/	.	.	.	.	.	4a/	.
.	.	8g\	.	8g#\	.	.	.
!	!	!	!	!	!	!LO:SIC:v:t=custos ff	!
.	.	4a\	.	8f#\	.	4ff\	d'il
.	.	.	.	8e\	.	.	.
!	!	!	!	!	!	!LO:LB:g=original	!
*	*	*	*	*	*	*xywh-pl-gd--ee1638-8o--0641:1036,3907,3598,606	*
.	.	2a\	d'il	4d/	.	4ff\	cie-
!	!	!	!	!LO:SIC:v:t=custos f#	!	!	!
4G/	.	.	.	4e/	.	8ee\	.
.	.	.	.	.	.	8dd\	.
!	!	!	!	!LO:LB:g=original	!	!	!
*	*	*	*	*xywh-pl-gd--ee1638-8o--0489:1151,3840,3373,747	*	*	*
1A	.	1a	cie-	4f#\	.	4cc#X\	.
.	.	.	.	8e/	.	2dd\	.
.	.	.	.	8d/	.	.	.
.	.	.	.	2e/	.	.	.
.	.	.	.	.	.	4cc#X\	.
=32-	=32-	=32-	=32-	=32-	=32-	=32-	=32-
1D	-lo	1a	-lo	1f#X	-lo	1dd	-lo
1r	.	2r	.	2r	.	2b/	Tut-
.	.	2e\	Tut-	2g#\	Tut-	4b/	-to
.	.	.	.	.	.	4cc#\	tre-
=33-	=33-	=33-	=33-	=33-	=33-	=33-	=33-
0r	.	4e\	-to	4g#\	-to	4.cc#\	-mar
.	.	4f#\	tre-	4a\	tre-	.	.
.	.	.	.	.	.	8dd\	.
.	.	4.f#\	-mar	4.a\	-mar	8cc#\	.
.	.	.	.	.	.	8dd\	.
.	.	.	.	.	.	4.cc#\	.
.	.	8e\	.	8g#\	.	.	.
.	.	4.f#\	.	4.a\	.	.	.
.	.	.	.	.	.	8dd\	.
.	.	.	.	.	.	2cc#\	.
.	.	8e\	.	8g#\	.	.	.
.	.	8f#\	.	8a\	.	.	.
.	.	8e\	.	8g#\	.	.	.
.	.	2f#\	.	2a\	.	4cc#\	d'un
=34-	=34-	=34-	=34-	=34-	=34-	=34-	=34-
0r	.	.	.	.	.	4.ff\	a-
.	.	4d\	d'un	4a\	d'un	.	.
.	.	.	.	.	.	8ff\	-mo-
.	.	4.a\	a-	4.cc#X\	a-	4ee\	-ro-
.	.	.	.	.	.	2a/	-ſo
!	!	!LO:SIC:v:t=custos f#	!	!	!	!	!
.	.	8a\	-mo-	8cc#\	-mo-	.	.
!	!	!LO:LB:g=original	!	!	!	!	!
*	*	*xywh-pl-gd--ee1638-8o--0337:1052,4488,3490,651	*	*	*	*	*
.	.	4f#X\	-ro-	4dd\	-ro-	.	.
.	.	4g\	-ſo	4b-\	-ſo	2g#/	gie-
!	!	!	!	!LO:SIC:v:t=custos b-	!	!	!
.	.	2d\	gie-	2a\	gie-	.	.
!	!	!	!	!	!	!LO:SIC:v:t=custos g#	!
.	.	.	.	.	.	4f#X/	.
!	!	!	!	!LO:LB:g=original	!	!LO:LB:g=original	!
=35-	=35-	=35-	=35-	=35-	=35-	=35-	=35-
*	*	*	*	*xywh-pl-gd--ee1638-8o--0489:1057,4411,3425,695	*	*xywh-pl-gd--ee1638-8o--0641:1108,4421,3403,802	*
4r	.	2G/	-lo	4b-\	-lo	2g#/	-lo
4G/	d'un	.	.	4g#\	d'un	.	.
4.d\	a-	2r	.	4.f#X\	a-	4a/	d'un
.	.	.	.	.	.	4.dd\	a-
8d\	-mo-	.	.	8f#\	-mo-	.	.
4B-\	-ro-	2r	.	4g#\	-ro-	.	.
.	.	.	.	.	.	8dd\	-mo-
4c\	-ſo	.	.	4e/	-ſo	2cc#\	-ro-
!LO:SIC:v:t=custos C	!	!	!	!	!	!	!
2G/	gie-	4r	.	2d/	gie-	.	.
.	.	4g\	d'un	.	.	4b/	-ſo
!LO:LB:g=original	!	!	!	!	!	!	!
=36-	=36-	=36-	=36-	=36-	=36-	=36-	=36-
*xywh-pl-gd--ee1638-8o--0185:1081,3971,3510,621	*	*	*	*	*	*	*
2C/	-lo	4.e\	a-	2g#\	-lo	8cc#\	gie-
.	.	.	.	.	.	8dd\	.
.	.	.	.	.	.	2ee\	.
.	.	8e\	-mo-	.	.	.	.
2r	.	4c#X/	-ro-	2a\	d'un	.	.
.	.	4d\	-ſo	.	.	2dd\	.
4r	.	2A/	gie-	4.a\	a-	.	.
4A/	d'un	.	.	.	.	8cc#\	.
.	.	.	.	8g#\	-mo-	8b\	.
4.d\	a-	4D/	-lo	4f#X\	-ro-	4a/	.
.	.	4G/	d'un	4g#\	-ſo	4.b/	.
8d\	-mo-	.	.	.	.	.	.
=37-	=37-	=37-	=37-	=37-	=37-	=37-	=37-
2B-\	-ro-	4.d\	a-	0g#	gie-	.	.
.	.	.	.	.	.	8cc#\	.
.	.	.	.	.	.	4.dd\	.
.	.	8d\	-moro-	.	.	.	.
2c\	-ſo	4e\	.	.	.	.	.
.	.	.	.	.	.	8cc#\	.
.	.	4e\	-ſo	.	.	2cc#\	.
1G	gie-	1d	gie-	.	.	.	.
.	.	.	.	.	.	8b/	.
.	.	.	.	.	.	8a/	.
.	.	.	.	.	.	2b/	.
=38-	=38-	=38-	=38-	=38-	=38-	=38-	=38-
!LO:N:vis=00	!	!LO:N:vis=00	!	!LO:N:vis=00	!	!LO:N:vis=00	!
0C#y	-lo.	0c#	-lo.	0g#	-lo.	0cc#	-lo.
==	==	==	==	==	==	==	==
*-	*-	*-	*-	*-	*-	*-	*-
!!!system-decoration: [(s1,s2,s3,s4)]
!!!IIIF: https://repozytorium.nifc.pl/islandora/object/pl-gd%3A57883/datastream/IIIF/view
!!!ENC: Mateusz Solarz
!!!END: 2022-06-25
!!!ENC: Natalia Wrzos
!!!END: 2022-07-08
!!!ENC-iiif: Zuzanna Daniec
!!!END-iiif: 2022-09-01
!!!YEC: Copyright 2022 Narodowy Instytut Fryderyka Chopina (https://polishscores.org)
!!!YEM: Licence CC BY 4.0 (https://creativecommons.org/licenses/by/4.0)
